X: 10917
T: Drowsy Maggie
R: reel
M: 4/4
K: Edorian
E2BE dEBE|E2BE AFDF|E2BE dEBE|BABc dAFD|
E2BE E2 BE|E2 BE AF D2|E2BE dEBE|BABc dAFD||
d2 fd c2 ec|defg afge|d2 fd c2 ec|BABc dAFA|
d2 fd c2 ec|defg a2 fg|afge fdec|BABc dAFD||

